!!!OTL: 明日晴れるかな
**kern	**kern	**text	**kern	**text	**kern	**text	**kern	**text	**kern	**text
*part6	*part5	*part5	*part4	*part4	*part3	*part3	*part2	*part2	*part1	*part1
*staff6	*staff5	*staff5	*staff4	*staff4	*staff3	*staff3	*staff2	*staff2	*staff1	*staff1
*I"钢琴	*I"钢琴	*	*I"钢琴	*	*I"钢琴	*	*I"钢琴	*	*I"钢琴	*
*	*	*	*	*	*	*	*	*	*I'Pno.	*
*clefX	*clefG2	*	*clefG2	*	*clefG2	*	*clefG2	*	*clefG2	*
*k[]	*k[b-]	*	*k[b-]	*	*k[b-]	*	*k[b-]	*	*k[b-]	*
*MM70	*MM70	*	*MM70	*	*MM70	*	*MM70	*	*MM70	*
=1	=1	=1	=1	=1	=1	=1	=1	=1	=1	=1
4Rgg/	1r	.	1r	.	1r	.	1r	.	1r	.
4Rgg/	.	.	.	.	.	.	.	.	.	.
4Rgg/	.	.	.	.	.	.	.	.	.	.
4Rgg/	.	.	.	.	.	.	.	.	.	.
=2	=2	=2	=2	=2	=2	=2	=2	=2	=2	=2
1r	8a	.	1A	.	1c	.	1f	.	1r	.
.	[4.cc	.	.	.	.	.	.	.	.	.
.	8ccL]	.	.	.	.	.	.	.	.	.
.	16b-L	.	.	.	.	.	.	.	.	.
.	16aJJ	.	.	.	.	.	.	.	.	.
.	16b-LL	.	.	.	.	.	.	.	.	.
.	16aJ	.	.	.	.	.	.	.	.	.
.	8fJ	.	.	.	.	.	.	.	.	.
=3	=3	=3	=3	=3	=3	=3	=3	=3	=3	=3
1r	8gL	.	1G	.	1B-	.	1e-X	.	1r	.
.	[8ccJ	.	.	.	.	.	.	.	.	.
.	8ccL]	.	.	.	.	.	.	.	.	.
.	16ddJk	.	.	.	.	.	.	.	.	.
.	4g	.	.	.	.	.	.	.	.	.
.	16r	.	.	.	.	.	.	.	.	.
.	4r	.	.	.	.	.	.	.	.	.
=4	=4	=4	=4	=4	=4	=4	=4	=4	=4	=4
1r	8b-	.	1B-	.	1d	.	1f	.	1r	.
.	[4.cc	.	.	.	.	.	.	.	.	.
.	8ccL]	.	.	.	.	.	.	.	.	.
.	16b-L	.	.	.	.	.	.	.	.	.
.	16aJJ	.	.	.	.	.	.	.	.	.
.	16b-LL	.	.	.	.	.	.	.	.	.
.	16aJ	.	.	.	.	.	.	.	.	.
.	8fJ	.	.	.	.	.	.	.	.	.
=5	=5	=5	=5	=5	=5	=5	=5	=5	=5	=5
1r	16gLL	.	1A	.	1c	.	1f	.	2r	.
.	16aJJ	.	.	.	.	.	.	.	.	.
.	2f	.	.	.	.	.	.	.	.	.
.	.	.	.	.	.	.	.	.	8r	.
.	8.r	.	.	.	.	.	.	.	8.r	.
.	16cLL	あ	.	.	.	.	.	.	16CLL	あ
.	16f	つ	.	.	.	.	.	.	16F	つ
.	16gJJ	い	.	.	.	.	.	.	16GJJ	い
=6	=6	=6	=6	=6	=6	=6	=6	=6	=6	=6
1r	8aL	な	2A	.	2c	.	2f	.	8AL	な
.	16gK	み	.	.	.	.	.	.	16GK	み
.	8.aJ	だ	.	.	.	.	.	.	8.AJ	だ
.	16gKL	や	.	.	.	.	.	.	16GKL	や
.	8.aJ	こ	.	.	.	.	.	.	8.AJ	こ
.	.	.	2G	.	2c	.	2e	.	.	.
.	16gKL	い	.	.	.	.	.	.	16GKL	い
.	8.aJ	の	.	.	.	.	.	.	8.AJ	の
.	16ccLL	さ	.	.	.	.	.	.	16cLL	さ
.	[16fJJ	け	.	.	.	.	.	.	[16FJJ	け
=7	=7	=7	=7	=7	=7	=7	=7	=7	=7	=7
1r	8fL]	.	2A	.	2d	.	2f	.	8FL]	.
.	16eJk	び	.	.	.	.	.	.	16EJk	び
.	2f	も	.	.	.	.	.	.	2F	も
.	.	.	2A	.	2c	.	2f	.	.	.
.	8r	.	.	.	.	.	.	.	8r	.
.	16dLL	か	.	.	.	.	.	.	16DLL	か
.	16g	が	.	.	.	.	.	.	16G	が
.	16aJJ	や	.	.	.	.	.	.	16AJJ	や
=8	=8	=8	=8	=8	=8	=8	=8	=8	=8	=8
1r	8b-L	け	2B-	.	2d	.	2g	.	8B-L	け
.	16aK	る	.	.	.	.	.	.	16AK	る
.	8.b-J	日	.	.	.	.	.	.	8.B-J	日
.	16aKL	は	.	.	.	.	.	.	16AKL	は
.	8.b-J	ど	.	.	.	.	.	.	8.B-J	ど
.	.	.	2c	.	2e	.	2g	.	.	.
.	16aKL	こ	.	.	.	.	.	.	16AKL	こ
.	8.b-J	へ	.	.	.	.	.	.	8.B-J	へ
.	16ccLL	き	.	.	.	.	.	.	16cLL	き
.	[16aJJ	え	.	.	.	.	.	.	[16AJJ	え
=9	=9	=9	=9	=9	=9	=9	=9	=9	=9	=9
1r	8aL]	た	2c	.	1f	.	1a	.	8AL]	た
.	16gJk	の	.	.	.	.	.	.	16GJk	の
.	2a	ー	.	.	.	.	.	.	2A	ー
.	.	.	8.r	.	.	.	.	.	.	.
.	8r	.	8r	.	.	.	.	.	8r	.
.	16fLL	あ	16ALL	.	.	.	.	.	16FLL	あ
.	16a	す	16c	.	.	.	.	.	16A	す
.	16b-JJ	も	16dJJ	.	.	.	.	.	16B-JJ	も
=10	=10	=10	=10	=10	=10	=10	=10	=10	=10	=10
1r	8ccL	あ	8eL	.	2e	.	2g	.	8cL	あ
.	16bnK	て	16dK	.	.	.	.	.	16B-K	て
.	8.ccJ	な	8.eJ	.	.	.	.	.	8.cJ	な
.	16bKL	き	16dKL	.	.	.	.	.	16B-KL	き
.	8.ccJ	み	8.eJ	.	.	.	.	.	8.cJ	み
.	.	.	.	.	2f#X	.	2a	.	.	.
.	16bKL	ち	16dKL	.	.	.	.	.	16B-KL	ち
.	8.ccJ	を	8.eJ	.	.	.	.	.	8.cJ	を
.	16ddLL	さ	16fLL	.	.	.	.	.	16dLL	さ
.	[16b-XJJ	ま	[16dJJ	.	.	.	.	.	[16B-JJ	ま
=11	=11	=11	=11	=11	=11	=11	=11	=11	=11	=11
1r	8b-L]	.	8dL]	.	2d	.	2g	.	8B-L]	.
.	16aK	よ	16cK	.	.	.	.	.	16AK	よ
.	8gJ	う	8B-J	.	.	.	.	.	8GJ	う
.	16a	な	16c	.	.	.	.	.	16A	な
.	2b-	ら	2d-X	.	.	.	.	.	2B-	ら
.	.	.	.	.	2f	.	2a-X	.	.	.
.	8r	.	8r	.	.	.	.	.	8r	.
=12	=12	=12	=12	=12	=12	=12	=12	=12	=12	=12
1r	8aL	こ	4.c	.	4.e	.	4.a	.	8AL	こ
.	8ccJ	れ	.	.	.	.	.	.	8cJ	れ
.	16ggLL	い	.	.	.	.	.	.	16gLL	い
.	16ffJJ	じょ	.	.	.	.	.	.	16fJJ	じょ
.	4a	う	[8d	.	[8f	.	[8a	.	4A	う
.	.	.	2d]	.	2f]	.	2a]	.	.	.
.	8r	.	.	.	.	.	.	.	8r	.
.	16aLL	も	.	.	.	.	.	.	16ALL	も
.	16g	と	.	.	.	.	.	.	16G	と
.	16f	に	.	.	.	.	.	.	16F	に
.	16gJJ	は	.	.	.	.	.	.	16GJJ	は
=13	=13	=13	=13	=13	=13	=13	=13	=13	=13	=13
1r	8aL	も	2d	.	2g	.	2b-	.	8AL	も
.	16gK	ど	.	.	.	.	.	.	16GK	ど
.	8gJ	れ	.	.	.	.	.	.	8GJ	れ
.	16aKL	な	.	.	.	.	.	.	16AKL	な
.	[8b-J	い	.	.	.	.	.	.	[8B-J	い
.	4b-]	.	4d	.	2f	.	2b-	.	4B-]	.
.	4r	.	16r	.	.	.	.	.	16r	.
.	.	.	16cLL	.	.	.	.	.	16CLL	.
.	.	.	16f	.	.	.	.	.	16F	.
.	.	.	16gJJ	.	.	.	.	.	16GJJ	.
=14	=14	=14	=14	=14	=14	=14	=14	=14	=14	=14
1r	2A	.	8aL	.	8r	.	4r	.	8AL	.
.	.	.	16gK	.	4.c	.	.	.	16GK	.
.	.	.	8.aJ	.	.	.	.	.	8.AJ	.
.	.	.	.	.	.	.	4f	.	.	.
.	.	.	16gKL	.	.	.	.	.	16GKL	.
.	.	.	8.aJ	.	.	.	.	.	8.AJ	.
.	2G	.	.	.	2c	.	2e	.	.	.
.	.	.	16gKL	.	.	.	.	.	16GKL	.
.	.	.	8.aJ	.	.	.	.	.	8.AJ	.
.	.	.	16ccLL	.	.	.	.	.	16cLL	.
.	.	.	[16fJJ	.	.	.	.	.	[16FJJ	.
=15	=15	=15	=15	=15	=15	=15	=15	=15	=15	=15
1r	2A	.	8fL]	.	8r	.	4r	.	8FL]	.
.	.	.	16eJk	.	4.d	.	.	.	16EJk	.
.	.	.	2f	.	.	.	.	.	2F	.
.	.	.	.	.	.	.	4f	.	.	.
.	2A	.	.	.	2c	.	2f	.	.	.
.	.	.	8r	.	.	.	.	.	8r	.
.	.	.	16dLL	.	.	.	.	.	16DLL	.
.	.	.	16g	.	.	.	.	.	16G	.
.	.	.	16aJJ	.	.	.	.	.	16AJJ	.
=16	=16	=16	=16	=16	=16	=16	=16	=16	=16	=16
1r	2B-	.	8b-L	.	8r	.	4r	.	8B-L	.
.	.	.	16aK	.	4.d	.	.	.	16AK	.
.	.	.	8.b-J	.	.	.	.	.	8.B-J	.
.	.	.	.	.	.	.	4g	.	.	.
.	.	.	16aKL	.	.	.	.	.	16AKL	.
.	.	.	8.b-J	.	.	.	.	.	8.B-J	.
.	2c	.	.	.	8r	.	4r	.	.	.
.	.	.	16aKL	.	4.e	.	.	.	16AKL	.
.	.	.	8.b-J	.	.	.	.	.	8.B-J	.
.	.	.	.	.	.	.	4b-	.	.	.
.	.	.	16ccLL	.	.	.	.	.	16cLL	.
.	.	.	[16aJJ	.	.	.	.	.	[16AJJ	.
=17	=17	=17	=17	=17	=17	=17	=17	=17	=17	=17
1r	2c	.	8aL]	.	1f	.	1a	.	8AL]	.
.	.	.	16gJk	.	.	.	.	.	16GJk	.
.	.	.	2a	.	.	.	.	.	2A	.
.	8.r	.	.	.	.	.	.	.	.	.
.	8r	.	8r	.	.	.	.	.	8r	.
.	16ALL	.	16fLL	い	.	.	.	.	16FLL	い
.	16c	.	16a	ま	.	.	.	.	16A	ま
.	16dJJ	.	16b-JJ	は	.	.	.	.	16B-JJ	は
=18	=18	=18	=18	=18	=18	=18	=18	=18	=18	=18
1r	8eL	.	8ccL	よ	2e	.	2g	.	8cL	よ
.	16dK	.	16bnK	ご	.	.	.	.	16B-K	ご
.	8.eJ	.	8.ccJ	れ	.	.	.	.	8.cJ	れ
.	16dKL	.	16bKL	た	.	.	.	.	16B-KL	た
.	8.eJ	.	8.ccJ	ま	.	.	.	.	8.cJ	ま
.	.	.	.	.	2f#X	.	2a	.	.	.
.	16dKL	.	16bKL	ち	.	.	.	.	16B-KL	ち
.	8.eJ	.	8.ccJ	の	.	.	.	.	8.cJ	の
.	16fLL	.	16ddLL	か	.	.	.	.	16dLL	か
.	[16dJJ	.	[16b-XJJ	た	.	.	.	.	[16B-JJ	た
=19	=19	=19	=19	=19	=19	=19	=19	=19	=19	=19
1r	8dL]	.	8b-L]	.	2d	.	2g	.	8B-L]	.
.	16cK	.	16aK	す	.	.	.	.	16AK	す
.	8B-J	.	8gJ	み	.	.	.	.	8GJ	み
.	16c	.	16a	に	.	.	.	.	16A	に
.	2d-X	.	2b-	いて	.	.	.	.	2B-	いて
.	.	.	.	.	2f	.	2a-X	.	.	.
.	8r	.	8r	.	.	.	.	.	8r	.
=20	=20	=20	=20	=20	=20	=20	=20	=20	=20	=20
1r	4c	.	8aL	.	4e	.	4a	.	8AL	.
.	.	.	8ccJ	.	.	.	.	.	8cJ	.
.	8r	.	16ggLL	.	8r	.	8r	.	16gLL	.
.	.	.	16ffJJ	.	.	.	.	.	16fJJ	.
.	[8d	.	4a	.	[8f	.	[8a	.	4A	.
.	2d]	.	.	.	2f]	.	2a]	.	.	.
.	.	.	8r	.	.	.	.	.	8r	.
.	.	.	16aLL	.	.	.	.	.	16ALL	.
.	.	.	16g	.	.	.	.	.	16G	.
.	.	.	16f	.	.	.	.	.	16F	.
.	.	.	16gJJ	.	.	.	.	.	16GJJ	.
=21	=21	=21	=21	=21	=21	=21	=21	=21	=21	=21
1r	4d	.	8aL	.	4g	.	4b-	.	8AL	.
.	.	.	16gL	.	.	.	.	.	16GL	.
.	.	.	[16gJJ	.	.	.	.	.	[16GJJ	.
.	4e	.	8gL]	.	4g	.	4cc	.	8GL]	.
.	.	.	16fJk	.	.	.	.	.	16FJk	.
.	.	.	4f	.	.	.	.	.	4F	.
.	2c	.	.	.	4f	.	2a	.	.	.
.	.	.	4r	.	.	.	.	.	16r	.
.	.	.	.	.	16r	.	.	.	16r	.
.	.	.	.	.	8r	.	.	.	8r	.
.	.	.	16r	.	16a	.	.	.	16A	.
=22	=22	=22	=22	=22	=22	=22	=22	=22	=22	=22
1r	2B-	.	2d	.	8aL	.	2f	.	8AL	.
.	.	.	.	.	8gJ	.	.	.	8GJ	.
.	.	.	.	.	8dL	.	.	.	8DL	.
.	.	.	.	.	16fK	.	.	.	16FK	.
.	.	.	.	.	8.aJ	.	.	.	8.AJ	.
.	2c	.	2e	.	.	.	2g	.	.	.
.	.	.	.	.	8g	.	.	.	8G	.
.	.	.	.	.	8ccL	.	.	.	8cL	.
.	.	.	.	.	16gL	.	.	.	16GL	.
.	.	.	.	.	16gJJ	.	.	.	16GJJ	.
=23	=23	=23	=23	=23	=23	=23	=23	=23	=23	=23
1r	2c	.	2e	.	8gL	.	2a	.	8GL	.
.	.	.	.	.	8fJ	.	.	.	8FJ	.
.	.	.	.	.	8gL	.	.	.	8GL	.
.	.	.	.	.	16aK	.	.	.	16AK	.
.	.	.	.	.	8gJ	.	.	.	8GJ	.
.	2d	.	2f	.	.	.	2a	.	.	.
.	.	.	.	.	[16f	.	.	.	[16F	.
.	.	.	.	.	4f]	.	.	.	4F]	.
.	.	.	.	.	8r	.	.	.	8r	.
=24	=24	=24	=24	=24	=24	=24	=24	=24	=24	=24
1r	2d	.	2g	.	8dL	.	2b-	.	8DL	.
.	.	.	.	.	8eJ	.	.	.	8EJ	.
.	.	.	.	.	8fL	.	.	.	8FL	.
.	.	.	.	.	16gK	.	.	.	16GK	.
.	.	.	.	.	8.aJ	.	.	.	8.AJ	.
.	2e	.	2g	.	.	.	2cc	.	.	.
.	.	.	.	.	8g	.	.	.	8G	.
.	.	.	.	.	8fL	.	.	.	8FL	.
.	.	.	.	.	16gL	.	.	.	16GL	.
.	.	.	.	.	[16gJJ	.	.	.	[16GJJ	.
=25	=25	=25	=25	=25	=25	=25	=25	=25	=25	=25
1r	2f	.	1a	.	16gLL]	.	1cc	.	16GLL]	.
.	.	.	.	.	16aJJ	.	.	.	16AJJ	.
.	.	.	.	.	4.a	.	.	.	4.A	.
.	8r	.	.	.	8r	.	.	.	8r	.
.	8AL	.	.	.	8fL	こ	.	.	8FL	こ
.	8A	.	.	.	8f	れ	.	.	8F	れ
.	16BnL	.	.	.	16gL	が	.	.	16GL	が
.	[16cJJ	.	.	.	[16aJJ	さ	.	.	[16AJJ	さ
=26	=26	=26	=26	=26	=26	=26	=26	=26	=26	=26
1r	8cL]	.	8r	.	8aL]	.	4r	.	8AL]	.
.	8B-J	.	4.d	.	8gJ	だ	.	.	8GJ	だ
.	8cL	.	.	.	8aL	め	4f	.	8AL	め
.	16B-K	.	.	.	16ddK	で	.	.	16dK	で
.	8cJ	.	.	.	8aJ	しょ	.	.	8AJ	しょ
.	.	.	8r	.	.	.	4r	.	.	.
.	16B-	.	.	.	16g	う	.	.	16G	う
.	[4B-	.	4.e	.	[4g	か	.	.	[4G	か
.	.	.	.	.	.	.	4g	.	.	.
.	16B-LL]	.	.	.	16gLL]	.	.	.	16GLL]	.
.	16B-JJ	.	.	.	16gJJ	あ	.	.	16GJJ	あ
=27	=27	=27	=27	=27	=27	=27	=27	=27	=27	=27
1r	8B-L	.	8r	.	8gL	き	4r	.	8GL	き
.	8AJ	.	4.c	.	8fJ	ら	.	.	8FJ	ら
.	8B-L	.	.	.	8gL	め	4e	.	8GL	め
.	16AK	.	.	.	16ccK	よ	.	.	16cK	よ
.	8B-J	.	.	.	8gJ	う	.	.	8GJ	う
.	.	.	8r	.	.	.	4r	.	.	.
.	16A	.	.	.	16f	か	.	.	16F	か
.	4.A	.	4.f	.	4.f	.	.	.	4.F	.
.	.	.	.	.	.	.	4a	.	.	.
=28	=28	=28	=28	=28	=28	=28	=28	=28	=28	=28
1r	1d	.	1g	.	8ddL	.	1bn	.	8dL	.
.	.	.	.	.	16eeK	.	.	.	16eK	.
.	.	.	.	.	8.eeJ	.	.	.	8.eJ	.
.	.	.	.	.	16ffKL	.	.	.	16fKL	.
.	.	.	.	.	8.ffJ	.	.	.	8.fJ	.
.	.	.	.	.	16eeKL	.	.	.	16eKL	.
.	.	.	.	.	8.eeJ	.	.	.	8.eJ	.
.	.	.	.	.	16ddLL	.	.	.	16dLL	.
.	.	.	.	.	[16cc#XJJ	.	.	.	[16cJJ	.
=29	=29	=29	=29	=29	=29	=29	=29	=29	=29	=29
1r	2d-X	.	2f	.	4cc#]	.	2a-X	.	4c]	.
.	.	.	.	.	16cc#XLL	.	.	.	16cLL	.
.	.	.	.	.	16dd#XJ	.	.	.	16dJ	.
.	.	.	.	.	8cc#J	.	.	.	8cJ	.
.	4.c	.	4.f	.	4.ccn	.	4.g	.	4.c	.
.	8B-	.	8e	.	8r	.	8g	.	8r	.
=30	=30	=30	=30	=30	=30	=30	=30	=30	=30	=30
1r	4c	.	4f	.	4a	.	4r	.	4r	.
.	4d	.	4g	.	4b-	.	8.r	.	8.r	.
.	.	.	.	.	.	.	8.dd	.	8.d	.
.	2c	.	2f	.	2a	.	.	.	.	.
.	.	.	.	.	.	.	8cc	.	8c	.
.	.	.	.	.	.	.	16aKL	.	16AKL	.
.	.	.	.	.	.	.	8ff	.	8f	.
.	.	.	.	.	.	.	[16ddJk	.	[16dJk	.
=31	=31	=31	=31	=31	=31	=31	=31	=31	=31	=31
1r	2c	.	2e	.	2g	.	8ddL]	.	8dL]	.
.	.	.	.	.	.	.	8.cc	.	8.c	.
.	.	.	.	.	.	.	8cc	.	8c	.
.	.	.	.	.	.	.	8.ccJ	.	8.cJ	.
.	2B-	.	2d	.	2f	.	.	.	.	.
.	.	.	.	.	.	.	16b-KL	.	16B-KL	.
.	.	.	.	.	.	.	8.ffJ	.	8.fJ	.
.	.	.	.	.	.	.	16b-LL	.	16B-LL	.
.	.	.	.	.	.	.	[16b-JJ	.	[16B-JJ	.
=32	=32	=32	=32	=32	=32	=32	=32	=32	=32	=32
1r	2c	.	2e	.	2g	.	8.b-L]	.	8.B-L]	.
.	.	.	.	.	.	.	8ddJ	.	8dJ	.
.	.	.	.	.	.	.	16ccLL	.	16cLL	.
.	.	.	.	.	.	.	16b-JJ	.	16B-JJ	.
.	.	.	.	.	.	.	[4cc	.	[4c	.
.	4r	.	4r	.	4r	.	.	.	.	.
.	.	.	.	.	.	.	8.cc]	.	8.c]	.
.	4c	.	4e	.	4a	.	.	.	.	.
.	.	.	.	.	.	.	16ddLL	.	16dLL	.
.	.	.	.	.	.	.	16aJJ	.	16AJJ	.
=33	=33	=33	=33	=33	=33	=33	=33	=33	=33	=33
1r	4B-	.	4d	.	4g	.	16aLL	.	16ALL	.
.	.	.	.	.	.	.	16gJ	.	16GJ	.
.	.	.	.	.	.	.	[8fJ	.	[8FJ	.
.	4A	.	4c	.	4f	.	8.fL]	.	8.FL]	.
.	.	.	.	.	.	.	16fJk	.	16FJk	.
.	2B-	.	2d	.	2g	.	8aL	.	8AL	.
.	.	.	.	.	.	.	16b-K	.	16B-K	.
.	.	.	.	.	.	.	8ccJ	.	8cJ	.
.	.	.	.	.	.	.	8ddL	.	8dL	.
.	.	.	.	.	.	.	16aJk	.	16AJk	.
=34	=34	=34	=34	=34	=34	=34	=34	=34	=34	=34
1r	4.e	.	2g	.	2cc	.	8aL	.	8AL	.
.	.	.	.	.	.	.	8gJ	.	8GJ	.
.	.	.	.	.	.	.	16fKL	.	16FKL	.
.	.	.	.	.	.	.	8gJ	.	8GJ	.
.	16r	.	.	.	.	.	.	.	.	.
.	8.dd	オー	.	.	.	.	16r	.	8.d	オー
.	.	.	2c	.	2f	.	2a	.	.	.
.	8cc	ベイ	.	.	.	.	.	.	8c	ベイ
.	16aKL	ユ	.	.	.	.	.	.	16AKL	ユ
.	8ff	ア	.	.	.	.	.	.	8f	ア
.	[16ddJk	メ	.	.	.	.	.	.	[16dJk	メ
=35	=35	=35	=35	=35	=35	=35	=35	=35	=35	=35
1r	8ddL]	.	2c	.	2e	.	2g	.	8dL]	.
.	8.cc	ビー	.	.	.	.	.	.	8.c	ビー
.	8cc	あい	.	.	.	.	.	.	8c	あい
.	8.ccJ	なく	.	.	.	.	.	.	8.cJ	なく
.	.	.	2B-	.	2d	.	2f	.	.	.
.	16b-KL	して	.	.	.	.	.	.	16B-KL	して
.	8.ffJ	楽	.	.	.	.	.	.	8.fJ	楽
.	16b-LL	は	.	.	.	.	.	.	16B-LL	は
.	[16b-JJ	な	.	.	.	.	.	.	[16B-JJ	な
=36	=36	=36	=36	=36	=36	=36	=36	=36	=36	=36
1r	8.b-L]	い	2c	.	2e	.	2g	.	8.B-L]	い
.	8ddJ	し	.	.	.	.	.	.	8dJ	し
.	16ccLL	あ	.	.	.	.	.	.	16cLL	あ
.	16b-JJ	わ	.	.	.	.	.	.	16B-JJ	わ
.	[4cc	せ	.	.	.	.	.	.	[4c	せ
.	.	.	4r	.	4r	.	4r	.	.	.
.	8.cc]	.	.	.	.	.	.	.	8.c]	.
.	.	.	4c	.	4e	.	4a	.	.	.
.	16ddLL	の	.	.	.	.	.	.	16dLL	の
.	[16ggJJ	フィ	.	.	.	.	.	.	[16gJJ	フィ
=37	=37	=37	=37	=37	=37	=37	=37	=37	=37	=37
1r	8gg]	.	2A	.	2d	.	2f	.	8g]	.
.	4ff	リング	.	.	.	.	.	.	4f	リング
.	16aKL	だ	.	.	.	.	.	.	16AKL	だ
.	8.aJ	き	.	.	.	.	.	.	8.AJ	き
.	.	.	2B-	.	2d	.	2g	.	.	.
.	8b-	し	.	.	.	.	.	.	8B-	し
.	16fKL	め	.	.	.	.	.	.	16FKL	め
.	8gJ	て	.	.	.	.	.	.	8GJ	て
.	16r	.	.	.	.	.	.	.	16r	.
=38	=38	=38	=38	=38	=38	=38	=38	=38	=38	=38
1r	4g#X	ワン	4A-X	.	4d-X	.	4f	.	4G	ワン
.	4a#X	モア	4B-	.	4e-X	.	4g	.	4A	モア
.	32g#LLL	タ	4c	.	4f	.	2a	.	32GLLL	タ
.	32gn	.	.	.	.	.	.	.	32G	.
.	[32fJ	イム	.	.	.	.	.	.	[32FJ	イム
.	16fJJ_	.	.	.	.	.	.	.	16FJJ_	.
.	4f]	.	.	.	.	.	.	.	4F]	.
.	.	.	4r	.	4r	.	.	.	.	.
.	16r	.	.	.	.	.	.	.	16r	.
.	32r	.	.	.	.	.	.	.	32r	.
=39	=39	=39	=39	=39	=39	=39	=39	=39	=39	=39
1r	2r	.	4r	.	2r	.	2r	.	1r	.
.	.	.	8.r	.	.	.	.	.	.	.
.	.	.	8.dd	.	.	.	.	.	.	.
.	4r	.	.	.	4r	.	4r	.	.	.
.	.	.	8cc	.	.	.	.	.	.	.
.	4A	.	16aKL	.	4c	.	4f	.	.	.
.	.	.	8ff	.	.	.	.	.	.	.
.	.	.	[16ddJk	.	.	.	.	.	.	.
=40	=40	=40	=40	=40	=40	=40	=40	=40	=40	=40
1r	2c	.	8ddL]	.	2e	.	2g	.	1r	.
.	.	.	8.cc	.	.	.	.	.	.	.
.	.	.	8cc	.	.	.	.	.	.	.
.	.	.	8.ccJ	.	.	.	.	.	.	.
.	4r	.	.	.	4r	.	4r	.	.	.
.	.	.	16b-KL	.	.	.	.	.	.	.
.	.	.	8.ffJ	.	.	.	.	.	.	.
.	4d	.	.	.	4g	.	4b-	.	.	.
.	.	.	16b-LL	.	.	.	.	.	.	.
.	.	.	[16b-JJ	.	.	.	.	.	.	.
=41	=41	=41	=41	=41	=41	=41	=41	=41	=41	=41
1r	2c	.	8.b-L]	.	2e	.	2g	.	1r	.
.	.	.	8ddJ	.	.	.	.	.	.	.
.	.	.	16ccLL	.	.	.	.	.	.	.
.	.	.	16b-JJ	.	.	.	.	.	.	.
.	.	.	[4cc	.	.	.	.	.	.	.
.	4r	.	.	.	4r	.	4r	.	.	.
.	.	.	8.cc]	.	.	.	.	.	.	.
.	4c	.	.	.	4e	.	4a	.	.	.
.	.	.	16ddLL	.	.	.	.	.	.	.
.	.	.	16aJJ	.	.	.	.	.	.	.
=42	=42	=42	=42	=42	=42	=42	=42	=42	=42	=42
1r	4B-	.	16aLL	.	4d	.	4g	.	1r	.
.	.	.	16gJ	.	.	.	.	.	.	.
.	.	.	[8fJ	.	.	.	.	.	.	.
.	4A	.	8.fL]	.	4c	.	4f	.	.	.
.	.	.	16fJk	.	.	.	.	.	.	.
.	2r	.	8aL	.	2r	.	2r	.	.	.
.	.	.	16b-K	.	.	.	.	.	.	.
.	.	.	8ccJ	.	.	.	.	.	.	.
.	.	.	8ddL	.	.	.	.	.	.	.
.	.	.	[16aJk	.	.	.	.	.	.	.
=43	=43	=43	=43	=43	=43	=43	=43	=43	=43	=43
1r	2e	.	8aL]	.	4.g	.	2cc	.	1r	.
.	.	.	8gJ	.	.	.	.	.	.	.
.	.	.	16fKL	.	.	.	.	.	.	.
.	.	.	8.gJ	.	.	.	.	.	.	.
.	.	.	.	.	16r	.	.	.	.	.
.	.	.	.	.	8.ddL	.	.	.	.	.
.	4r	.	4r	.	.	.	4r	.	.	.
.	.	.	.	.	8ccJ	.	.	.	.	.
.	4c	.	4f	.	16aKL	.	4a	.	.	.
.	.	.	.	.	8ff	.	.	.	.	.
.	.	.	.	.	[16ddJk	.	.	.	.	.
=44	=44	=44	=44	=44	=44	=44	=44	=44	=44	=44
1r	2c	.	2e	.	8ddL]	.	2g	.	1r	.
.	.	.	.	.	8.cc	.	.	.	.	.
.	.	.	.	.	8cc	.	.	.	.	.
.	.	.	.	.	8.ccJ	.	.	.	.	.
.	2B-	.	2d	.	.	.	2f	.	.	.
.	.	.	.	.	16b-KL	.	.	.	.	.
.	.	.	.	.	8.ffJ	.	.	.	.	.
.	.	.	.	.	16b-LL	.	.	.	.	.
.	.	.	.	.	16b-JJ	.	.	.	.	.
=45	=45	=45	=45	=45	=45	=45	=45	=45	=45	=45
1r	[8.cL	.	[8.eL	.	8.b-L	.	[8.gL	.	1r	.
.	8cJ]	.	8eJ]	.	8ddJ	.	8gJ]	.	.	.
.	16ccLL	.	16ccLL	.	16ccLL	.	16ccLL	.	.	.
.	16b-JJ	.	16b-JJ	.	16b-JJ	.	16b-JJ	.	.	.
.	[4cc	.	[4cc	.	[4cc	.	[4cc	.	.	.
.	8.cc]	.	8.cc]	.	8.cc]	.	8.cc]	.	.	.
.	8r	.	8r	.	8r	.	8r	.	.	.
=46	=46	=46	=46	=46	=46	=46	=46	=46	=46	=46
1r	2d	.	2f	.	16ccLL	.	2a	.	1r	.
.	.	.	.	.	16dd	.	.	.	.	.
.	.	.	.	.	16eeJ	.	.	.	.	.
.	.	.	.	.	8ffJ	.	.	.	.	.
.	.	.	.	.	16ggLL	.	.	.	.	.
.	.	.	.	.	16aaJ	.	.	.	.	.
.	.	.	.	.	8aaJ	.	.	.	.	.
.	2d	.	2g	.	.	.	2dd	.	.	.
.	.	.	.	.	16bb-	.	.	.	.	.
.	.	.	.	.	4dd	.	.	.	.	.
.	.	.	.	.	16ffLL	.	.	.	.	.
.	.	.	.	.	[16ddJJ	.	.	.	.	.
=47	=47	=47	=47	=47	=47	=47	=47	=47	=47	=47
1r	4d	.	4f	.	4dd]	.	4b-	.	1r	.
.	4c	.	4e	.	4cc	.	4g	.	.	.
.	4B-	.	4d	.	4dd	.	4d	.	.	.
.	4c#X	.	4e	.	4ee	.	4g	.	.	.
=48	=48	=48	=48	=48	=48	=48	=48	=48	=48	=48
1r	1r	.	1r	.	8ffL	.	1r	.	1r	.
.	.	.	.	.	8ff	.	.	.	.	.
.	.	.	.	.	8ff	.	.	.	.	.
.	.	.	.	.	16ggK	.	.	.	.	.
.	.	.	.	.	[8.aaJ	.	.	.	.	.
.	.	.	.	.	8aa]	.	.	.	.	.
.	.	.	.	.	8ffL	.	.	.	.	.
.	.	.	.	.	16ddL	.	.	.	.	.
.	.	.	.	.	[16ffJJ	.	.	.	.	.
=49	=49	=49	=49	=49	=49	=49	=49	=49	=49	=49
1r	1r	.	1r	.	4ff]	.	1r	.	1r	.
.	.	.	.	.	4r	.	.	.	.	.
.	.	.	.	.	2r	.	.	.	.	.
=50	=50	=50	=50	=50	=50	=50	=50	=50	=50	=50
1r	8dL	.	8fL	.	1r	.	8aL	あ	1r	.
.	8dJ	.	8fJ	.	.	.	8aJ	し	.	.
.	8dL	.	8fL	.	.	.	8aL	た	.	.
.	16eK	.	16gK	.	.	.	16b-K	は	.	.
.	[8.fJ	.	[8.aJ	.	.	.	[8.ccJ	れ	.	.
.	8f]	.	8a]	.	.	.	8cc]	.	.	.
.	8dL	.	8fL	.	.	.	8aL	る	.	.
.	16AL	.	16dL	.	.	.	16fL	か	.	.
.	[16cJJ	.	[16fJJ	.	.	.	[16aJJ	な	.	.
=51	=51	=51	=51	=51	=51	=51	=51	=51	=51	=51
1r	4c]	.	4f]	.	1r	.	4a]	.	1r	.
.	4r	.	4r	.	.	.	4r	.	.	.
.	2r	.	2r	.	.	.	2r	.	.	.
=52	=52	=52	=52	=52	=52	=52	=52	=52	=52	=52
1r	8fL	.	8fL	.	8ffL	.	8fL	は	1r	.
.	8fJ	.	8fJ	.	8ffJ	.	8fJ	る	.	.
.	8fL	.	8fL	.	8ffL	.	8fL	か	.	.
.	16gK	.	16gK	.	16ggK	.	16gK	そ	.	.
.	[8.aJ	.	[8.aJ	.	[8.aaJ	.	[8.aJ	ら	.	.
.	4.a_	.	4.a_	.	4.aa_	.	4.a_	.	.	.
=53	=53	=53	=53	=53	=53	=53	=53	=53	=53	=53
*M2/4	*M2/4	*	*M2/4	*	*M2/4	*	*M2/4	*	*M2/4	*
2r	4a]	.	4a]	.	4aa]	.	4a_	.	2r	.
.	8dL	.	8fL	.	8ffL	.	8aL]	の	.	.
.	16AL	.	16dL	.	16ddL	.	16fL	し	.	.
.	[16cJJ	.	[16fJJ	.	[16ffJJ	.	[16aJJ	た	.	.
=54	=54	=54	=54	=54	=54	=54	=54	=54	=54	=54
2r	2c_	.	2f_	.	2ff_	.	2a_	.	2r	.
=55	=55	=55	=55	=55	=55	=55	=55	=55	=55	=55
2r	2c]	.	2f]	.	2ff]	.	2a]	.	2r	.
==	==	==	==	==	==	==	==	==	==	==
*-	*-	*-	*-	*-	*-	*-	*-	*-	*-	*-
